icons/clippy-24.svg

<svg width="24" height="24" viewBox="0 0 24 24" xmlns="http://www.w3.org/2000/svg">
  <path fill-rule="evenodd" clip-rule="evenodd" d="M5.96151 2.51283C6.0925 2.90579 5.88013 3.33053 5.48717 3.46151L4.67094 3.73359C4.56886 3.76762 4.5 3.86315 4.5 3.97076V21.25C4.5 21.3881 4.61193 21.5 4.75 21.5H19.25C19.3881 21.5 19.5 21.3881 19.5 21.25V3.97076C19.5 3.86315 19.4311 3.76762 19.3291 3.73359L18.5128 3.46151C18.1199 3.33053 17.9075 2.90579 18.0385 2.51283C18.1695 2.11987 18.5942 1.9075 18.9872 2.03849L19.8034 2.31056C20.518 2.54876 21 3.21751 21 3.97076V21.25C21 22.2165 20.2165 23 19.25 23H4.75C3.7835 23 3 22.2165 3 21.25V3.97076C3 3.2175 3.482 2.54876 4.1966 2.31056L5.01283 2.03849C5.40579 1.9075 5.83053 2.11987 5.96151 2.51283Z"/>
  <path fill-rule="evenodd" clip-rule="evenodd" d="M7 1.75C7 0.783502 7.7835 0 8.75 0H15.25C16.2165 0 17 0.783502 17 1.75V3.25C17 4.2165 16.2165 5 15.25 5H8.75C7.7835 5 7 4.2165 7 3.25V1.75ZM8.75 1.5C8.61193 1.5 8.5 1.61193 8.5 1.75V3.25C8.5 3.38807 8.61193 3.5 8.75 3.5H15.25C15.3881 3.5 15.5 3.38807 15.5 3.25V1.75C15.5 1.61193 15.3881 1.5 15.25 1.5H8.75Z"/>
</svg>

<svg xmlns="http://www.w3.org/2000/svg" width="24" height="24" viewBox="0 0 24 24"><path fill-rule="evenodd" d="M5.962 2.513a.75.75 0 01-.475.949l-.816.272a.25.25 0 00-.171.237V21.25c0 .138.112.25.25.25h14.5a.25.25 0 00.25-.25V3.97a.25.25 0 00-.17-.236l-.817-.272a.75.75 0 01.474-1.424l.816.273A1.75 1.75 0 0121 3.97v17.28A1.75 1.75 0 0119.25 23H4.75A1.75 1.75 0 013 21.25V3.97a1.75 1.75 0 011.197-1.66l.816-.272a.75.75 0 01.949.475z"/><path fill-rule="evenodd" d="M7 1.75C7 .784 7.784 0 8.75 0h6.5C16.216 0 17 .784 17 1.75v1.5A1.75 1.75 0 0115.25 5h-6.5A1.75 1.75 0 017 3.25v-1.5zm1.75-.25a.25.25 0 00-.25.25v1.5c0 .138.112.25.25.25h6.5a.25.25 0 00.25-.25v-1.5a.25.25 0 00-.25-.25h-6.5z"/></svg>
